src/assets/icons/plus.svg

<svg width="70" height="71" viewBox="0 0 70 71" fill="none" xmlns="http://www.w3.org/2000/svg">
<circle cx="35" cy="35.7344" r="35" fill="#8496E7"/>
<path d="M43 33.0677H37.6667V27.7344H32.3333V33.0677H27V38.401H32.3333V43.7344H37.6667V38.401H43V33.0677Z" fill="white"/>
</svg>

<svg xmlns="http://www.w3.org/2000/svg" width="70" height="71" fill="none"><circle cx="35" cy="35.734" r="35" fill="#8496E7"/><path fill="#fff" d="M43 33.068h-5.333v-5.334h-5.334v5.334H27V38.4h5.333v5.333h5.334v-5.333H43z"/></svg>
